packages/ffe-icons/icons/filled/md/scan.svg

<svg xmlns="http://www.w3.org/2000/svg" height="24" viewBox="0 -960 960 960" width="24"><path d="M878.461-370.001H81.539q-12.75 0-21.375-8.628-8.625-8.629-8.625-21.384 0-12.756 8.625-21.371 8.625-8.615 21.375-8.615H878.46q12.75 0 21.375 8.628 8.625 8.629 8.625 21.384 0 12.756-8.625 21.371-8.625 8.615-21.375 8.615Zm-302.46-250H720L540.001-800v143.999q0 15.3 10.35 25.65 10.35 10.35 25.65 10.35Zm-323.692 520q-29.827 0-51.067-21.241-21.241-21.24-21.241-51.067v-81.538q0-15.365 10.395-25.76 10.394-10.394 25.759-10.394h527.69q15.365 0 25.759 10.394 10.395 10.395 10.395 25.76v81.538q0 29.827-21.241 51.067-21.24 21.241-51.067 21.241H252.309Zm-36.154-409.998q-15.365 0-25.759-10.394-10.395-10.395-10.395-25.76v-241.538q0-29.827 21.241-51.067 21.24-21.241 51.067-21.241h287.769q14.632 0 27.893 5.616 13.26 5.615 23.107 15.461l167.844 167.844q9.846 9.847 15.461 23.107 5.616 13.261 5.616 27.893v73.925q0 15.365-10.395 25.76-10.394 10.394-25.759 10.394h-527.69Z"/></svg>

<svg xmlns="http://www.w3.org/2000/svg" height="24" viewBox="0 -960 960 960" width="24"><path d="M878.46-370H81.54q-12.75 0-21.38-8.63-8.62-8.63-8.62-21.38 0-12.76 8.62-21.37Q68.79-430 81.54-430h796.92q12.75 0 21.38 8.63 8.62 8.63 8.62 21.38 0 12.76-8.62 21.37-8.63 8.62-21.38 8.62ZM576-620h144L540-800v144q0 15.3 10.35 25.65Q560.7-620 576-620ZM252.31-100q-29.83 0-51.07-21.24Q180-142.48 180-172.31v-81.54q0-15.36 10.4-25.76Q200.79-290 216.16-290h527.68q15.37 0 25.76 10.39 10.4 10.4 10.4 25.76v81.54q0 29.83-21.24 51.07Q737.52-100 707.69-100H252.31Zm-36.15-410q-15.37 0-25.76-10.39-10.4-10.4-10.4-25.76v-241.54q0-29.83 21.24-51.07Q222.48-860 252.31-860h287.77q14.63 0 27.89 5.62 13.26 5.61 23.11 15.46l167.84 167.84q9.85 9.85 15.46 23.11 5.62 13.26 5.62 27.89v73.93q0 15.36-10.4 25.76Q759.21-510 743.84-510H216.16Z"/></svg>
